X: 11861
T: Emigrant's
R: reel
M: 4/4
K: Dmajor
|:FAdA BdAd|(3Bcd Ad ce e2|FAdA BdAd|GEAG FD D2|
FAdA BdAd|(3Bcd Ad ce e2|FAdA (3Bcd Ad|GEAG FD D2:|
|:fdcd BdAd|fdcd ce e2|fdcd (3Bcd Ad|GEAG FD D2|
fdcd BdAd|fdcd ce e2|(3fed (3edc (3dcB (3cBA|(3GAB AG FD D2:|

